Papirus/24x24/apps/google-chrome-beta.svg

<svg xmlns="http://www.w3.org/2000/svg" width="24" height="24" version="1">
 <rect style="opacity:.2" width="8.995" height="8.986" x="-16.99" y="-16.48" rx="4.498" ry="4.493" transform="matrix(0,-1,-1,0,0,0)"/>
 <path style="fill:#109f5b" d="m 5.5045218,17.092891 c 1.7514,3.037 2.7500722,3.58528 5.9915722,3.77028 3.4563,-1.9071 5.218306,-3.194671 4.323506,-6.487671 -0.37892,0.61782 -0.90432,1.1538 -1.578,1.5431 -1.0705,0.61867 -2.0616,-0.03158 -3.1649,-0.32134 -1.1189,-0.293 -2.3466,-0.238 -2.9732,-1.325 L 3.6411,6.53626 C 2.3682638,8.4721982 1.8044759,10.802713 2.0606499,13.114093 2.2086509,14.449461 3.2832382,14.757183 4,16 Z"/>
 <path style="opacity:.2;fill:#ffffff" d="m11.985 2c-5.5318 0-9.985 4.4576-9.985 9.995 0 0.08396 0.00379 0.16641 0.00584 0.24987 0.1319-5.4206 4.5312-9.7448 9.9788-9.7448 5.4475 0 9.847 4.3242 9.9788 9.7448 0.002-0.08338 0.0059-0.16598 0.0059-0.24987 0-5.5374-4.453-9.995-9.985-9.995z"/>
 <path style="opacity:.2" d="m2.0058 12.255c-0.00205 0.08346-0.00584 0.16591-0.00584 0.24987 0 5.5371 4.4532 9.9947 9.9848 9.9947s9.9848-4.4576 9.9848-9.9947c0-0.08396-0.004-0.16641-0.006-0.24987-0.1318 5.4201-4.5311 9.7448-9.9788 9.7448s-9.847-4.3247-9.9788-9.7448z"/>
 <path style="fill:#dd4d3e" d="m12.126953 2.0097656c-0.20693-0.00292-0.412426-0.0001563-0.619141 0.00977-1.7310578 0.086359-3.4379584 0.6676671-4.9199214 1.5742188-0.00111 0.0006783-0.0028 0.00127-0.00391 0.00195l-0.00195 0.00195c-0.2180621 0.1426894-0.4304638 0.2938465-0.6367181 0.4531268-0.233767 0.1790616-0.4595031 0.368205-0.6757813 0.5664063-0.0426382 0.0373997-0.0849574 0.0751615-0.1269531 0.1132813-0.8095147 0.767599-1.4889569 1.6643793-2.0039062 2.6601562l4.5703125 7.177734c-0.3720329-0.621399-0.1798089-1.605419-0.2128906-2.382812-0.0564879-1.329362 1.1124284-1.94437 1.9902343-2.8046876 0.7647039-0.7495155 2.5636449-1.7774177 2.2396719-2.3808594h8.918531c-0.210921-0.3686989-0.445119-0.7235845-0.701172-1.0625-0.033802-0.0415252-0.067095-0.0840231-0.101562-0.125-0.195838-0.2491227-0.402971-0.48798-0.621094-0.7167969-0.097267-0.1009429-0.197394-0.2001176-0.298828-0.296875l-0.01563-0.015625c-0.0063-0.00607-0.01318-0.01153-0.01953-0.017578-0.180889-0.1723426-0.369233-0.3356088-0.562496-0.4941407-0.058169-0.0496764-0.118446-0.0962057-0.177735-0.1445313-0.08868-0.069876-0.178536-0.1382452-0.269531-0.2050781-0.221614-0.1615875-0.452638-0.3119179-0.6875-0.4550781-0.076175-0.0485649-0.153006-0.0960953-0.230469-0.1425781-0.110941-0.0599917-0.222801-0.120026-0.335937-0.1757813-0.218889-0.1144142-0.439979-0.2240496-0.667969-0.3222656-0.120926-0.0522165-0.242343-0.101043-0.365234-0.1484375-0.055159-0.0206709-0.1105-0.040854-0.166016-0.0605469-0.268446-0.0976372-0.541669-0.1850463-0.820312-0.2597656l-0.01172-0.00391c-0.144976-0.0403931-0.290847-0.0775119-0.437499-0.1113244-0.172184-0.0370467-0.345639-0.0678021-0.519531-0.0957031-0.153094-0.0263637-0.306782-0.0491563-0.460938-0.0683594-0.16287-0.0188808-0.326643-0.032119-0.490234-0.0429688-0.126818-0.0089308-0.253794-0.0154424-0.38086-0.0195312-0.05859-0.00173-0.116845-0.00518-0.175781-0.00586z"/>
 <path style="fill:#ffce41" d="m 20.644531,6.9980469 -8.509765,0.00391 c 0.72399,0.01959 1.4513,0.7102994 2.125,1.0996094 1.152,0.6658 1.044028,1.9811937 1.298828,3.1835937 0.22201,1.0475 1.502985,1.763734 0.923515,2.768334 l -4.986015,6.809677 c 0.05727,0.0031 0.114562,0.0057 0.171875,0.0078 0.378591,0.01539 0.757311,0.01587 1.132812,-0.01172 0.08672,-0.0093 0.173317,-0.0197 0.259766,-0.03125 0.315309,-0.03154 0.629317,-0.07743 0.939453,-0.138672 0.144583,-0.02936 0.288498,-0.06192 0.43164,-0.09766 0.2513,-0.06135 0.498318,-0.136073 0.744141,-0.216797 0.146269,-0.04484 0.291489,-0.09303 0.435547,-0.144531 0.345071,-0.131252 0.684117,-0.281713 1.013672,-0.451172 0.138564,-0.07553 0.275321,-0.154327 0.410156,-0.236328 0.214017,-0.123288 0.425626,-0.250964 0.63086,-0.390625 0.135121,-0.09178 0.267974,-0.186865 0.398437,-0.285157 0.252881,-0.191092 0.496691,-0.394557 0.732422,-0.611328 0.06984,-0.05959 0.138858,-0.120146 0.207031,-0.18164 0.0036,-0.0035 0.0081,-0.0062 0.01172,-0.0098 0.01241,-0.01299 0.02477,-0.02601 0.03711,-0.03906 0.193649,-0.192193 0.379351,-0.39223 0.556641,-0.59961 0.05444,-0.0633 0.109052,-0.126486 0.162109,-0.191406 0.138482,-0.169422 0.271367,-0.343344 0.398438,-0.521484 0.08222,-0.115166 0.162235,-0.231996 0.240234,-0.351563 0.113524,-0.173035 0.221649,-0.349552 0.324219,-0.529297 0.646029,-1.137079 0.998241,-1.304246 1.169269,-2.608657 0.05564,-0.424329 0.08693,-0.851595 0.0944,-1.277948 2.3e-5,-0.0013 -2.3e-5,-0.0026 0,-0.0039 0.0039,-0.225455 -0.01613,-0.447553 -0.02539,-0.671875 -0.11449,-1.5058485 -0.568558,-2.9662087 -1.328125,-4.2714843 z"/>
 <rect style="opacity:.2" width="10" height="10" x="-17.5" y="-17" rx="5" ry="5" transform="matrix(0,-1,-1,0,0,0)"/>
 <rect style="fill:#ffffff" width="10" height="10" x="-17" y="-17" rx="5" ry="5" transform="matrix(0,-1,-1,0,0,0)"/>
 <rect style="fill:#4587f3" width="8" height="8" x="-16" y="-16" rx="4" ry="4" transform="matrix(0,-1,-1,0,0,0)"/>
 <path style="opacity:.2;fill:#ffffff" d="m12 2a10 10 0 0 0 -10 10 10 10 0 0 0 0.0097656 0.292969 10 10 0 0 1 9.9902344 -9.792969 10 10 0 0 1 9.990234 9.707031 10 10 0 0 0 0.009766 -0.207031 10 10 0 0 0 -10 -10z"/>
 <path style="fill:#4f4f4f" d="M 2.0605469 13 A 10 10 0 0 0 12 22 A 10 10 0 0 0 21.949219 13 L 2.0605469 13 z"/>
 <path style="opacity:0.2" d="m 7,15.002285 v 0.499707 1.499124 0.499707 1.499123 0.499708 h 1.9969504 c 0.5531553,0 0.9984752,-0.695593 0.9984752,-1.249269 0,-0.345622 -0.173822,-0.74691 -0.4387829,-0.999415 0.2649609,-0.252506 0.4387829,-0.653794 0.4387829,-0.999416 0,-0.553676 -0.4453199,-1.249269 -0.9984752,-1.249269 H 7.4992376 Z m 0.4992376,0.499707 h 1.4977128 c 0.2852129,0 0.4992376,0.464081 0.4992376,0.749562 0,0.285482 -0.2140247,0.749562 -0.4992376,0.749562 H 7.4992376 Z m 5.9908514,0.249855 c 0,0.32382 0.0037,0.483294 0.0039,0.749561 h -0.503132 v 0.499708 h 0.506064 c 0.0056,0.865665 0.02474,1.518938 0.127734,1.87976 0.07448,0.260928 0.236318,0.464708 0.446584,0.546555 0.210266,0.08185 0.417331,0.07222 0.66695,0.07222 v -0.499708 c -0.249619,0 -0.416007,-0.0106 -0.486561,-0.03806 -0.07055,-0.02746 -0.09593,-0.0423 -0.146262,-0.218622 -0.06952,-0.243554 -0.09217,-0.880011 -0.103357,-1.742146 h 0.486561 v -0.49971 h -0.491437 c -0.0015,-0.267473 -0.0078,-0.424956 -0.0078,-0.749561 z m -1.703453,0.749561 c -0.257976,0 -0.48537,0.06126 -0.681577,0.183487 -0.192573,0.12223 -0.34343,0.296645 -0.452434,0.523131 -0.10537,0.226486 -0.157962,0.497615 -0.157962,0.813977 0,0.323552 0.05827,0.594681 0.174538,0.813977 0.119905,0.219296 0.285572,0.385335 0.496313,0.49678 0.210741,0.111446 0.455429,0.166894 0.735205,0.166894 0.19984,0 0.372426,-0.01645 0.517764,-0.0488 0.145339,-0.02876 0.292736,-0.07486 0.441708,-0.139567 v -0.415772 c -0.152605,0.06471 -0.301245,0.115329 -0.446583,0.151278 -0.141705,0.03235 -0.306131,0.0488 -0.491437,0.0488 -0.290677,0 -0.517095,-0.08479 -0.680601,-0.253757 -0.159874,-0.172561 -0.24333,-0.522942 -0.250594,-0.850089 h 0.0029 v 0.0088 h 1.99695 v -0.194222 c 0,-0.262437 -0.04913,-0.491015 -0.147236,-0.685146 -0.09447,-0.197725 -0.232733,-0.34989 -0.414406,-0.45774 -0.181673,-0.107851 -0.395497,-0.162015 -0.642573,-0.162015 z m 4.291298,0 c -0.19984,0 -0.372426,0.01645 -0.517764,0.0488 -0.145338,0.02876 -0.292736,0.07486 -0.441708,0.139567 v 0.415772 c 0.152605,-0.06471 0.301245,-0.11533 0.446583,-0.151278 0.141705,-0.03236 0.306131,-0.0488 0.491437,-0.0488 0.290677,0 0.517096,0.08479 0.680601,0.253758 0.07604,0.08208 0.134207,0.205584 0.175514,0.346477 l -0.312024,0.0098 c -0.548213,0.01604 -0.953247,0.112521 -1.216891,0.288893 -0.263645,0.172365 -0.39588,0.418149 -0.39588,0.738827 0,0.328692 0.100425,0.57176 0.301298,0.728089 0.200871,0.152322 0.454089,0.228382 0.759582,0.228382 0.280384,0 0.501791,-0.04172 0.665,-0.125903 0.09329,-0.04811 0.183086,-0.115834 0.27107,-0.194222 v 0.05368 0.266445 h 0.499238 v -1.499123 h -0.0019 c 5.9e-5,-0.0076 0.0019,-0.01377 0.0019,-0.02147 0,-0.323552 -0.05827,-0.594681 -0.174538,-0.813977 -0.119904,-0.219296 -0.285572,-0.385334 -0.496313,-0.49678 -0.21074,-0.111445 -0.455429,-0.166894 -0.735205,-0.166894 z m -4.297149,0.388445 c 0.243442,0 0.421703,0.07672 0.53434,0.23131 0.07636,0.10236 0.118049,0.234343 0.144311,0.37966 H 11.04948 c 0.04009,-0.153934 0.09601,-0.291202 0.186239,-0.390396 0.134438,-0.147396 0.316158,-0.220574 0.545066,-0.220574 z m -4.2815474,0.61097 h 1.4977128 c 0.2852129,0 0.4992376,0.46408 0.4992376,0.749562 0,0.285482 -0.2140247,0.749561 -0.4992376,0.749561 H 7.4992376 Z m 9.4767394,0.369901 c 0.0037,0.04345 0.0096,0.08664 0.01072,0.129807 h -0.0019 v 0.0088 0.731018 c -0.03215,0.03952 -0.06645,0.078 -0.107258,0.110287 -0.188317,0.148313 -0.422644,0.222526 -0.703028,0.222526 -0.179948,0 -0.328433,-0.0427 -0.445608,-0.126879 -0.112991,-0.08418 -0.169663,-0.215872 -0.169663,-0.396253 0,-0.204431 0.07889,-0.363071 0.237918,-0.475307 0.163208,-0.112238 0.454207,-0.176237 0.872691,-0.192271 z"/>
 <path style="fill:#ffffff" d="m 7,14.502538 v 0.499708 1.499123 0.499708 1.499123 0.499708 h 1.9969504 c 0.5531553,0 0.9984752,-0.695593 0.9984752,-1.249269 0,-0.345622 -0.173822,-0.74691 -0.4387829,-0.999416 0.2649609,-0.252505 0.4387829,-0.653794 0.4387829,-0.999415 0,-0.553676 -0.4453199,-1.24927 -0.9984752,-1.24927 H 7.4992376 Z m 0.4992376,0.499708 h 1.4977128 c 0.2852129,0 0.4992376,0.46408 0.4992376,0.749562 0,0.285481 -0.2140247,0.749561 -0.4992376,0.749561 H 7.4992376 Z M 13.490089,15.2521 c 0,0.323821 0.0037,0.483294 0.0039,0.749561 h -0.503132 v 0.499708 h 0.506064 c 0.0056,0.865666 0.02474,1.518939 0.127734,1.87976 0.07448,0.260928 0.236318,0.464708 0.446584,0.546556 0.210266,0.08185 0.417331,0.07222 0.66695,0.07222 v -0.499708 c -0.249619,0 -0.416007,-0.0106 -0.486561,-0.03806 -0.07055,-0.02746 -0.09593,-0.0423 -0.146262,-0.218622 -0.06952,-0.243554 -0.09217,-0.880011 -0.103357,-1.742146 h 0.486561 v -0.49971 h -0.491437 c -0.0015,-0.267473 -0.0078,-0.424955 -0.0078,-0.749561 z m -1.703453,0.749561 c -0.257976,0 -0.48537,0.06126 -0.681577,0.183487 -0.192573,0.122231 -0.34343,0.296645 -0.452434,0.523131 -0.10537,0.226487 -0.157962,0.497616 -0.157962,0.813978 0,0.323551 0.05827,0.59468 0.174538,0.813977 0.119905,0.219296 0.285572,0.385334 0.496313,0.49678 0.210741,0.111446 0.455429,0.166894 0.735205,0.166894 0.19984,0 0.372426,-0.01645 0.517764,-0.0488 0.145339,-0.02876 0.292736,-0.07486 0.441708,-0.139568 v -0.415772 c -0.152605,0.06471 -0.301245,0.11533 -0.446583,0.151279 -0.141705,0.03235 -0.306131,0.0488 -0.491437,0.0488 -0.290677,0 -0.517095,-0.08479 -0.680601,-0.253758 C 11.081696,18.169528 10.99824,17.819147 10.990976,17.492 h 0.0029 v 0.0088 h 1.99695 v -0.194223 c 0,-0.262436 -0.04913,-0.491015 -0.147236,-0.685146 -0.09447,-0.197725 -0.232733,-0.349889 -0.414406,-0.45774 -0.181673,-0.10785 -0.395497,-0.162015 -0.642573,-0.162015 z m 4.291298,0 c -0.19984,0 -0.372426,0.01645 -0.517764,0.0488 -0.145338,0.02876 -0.292736,0.07486 -0.441708,0.139566 V 16.6058 c 0.152605,-0.06471 0.301245,-0.11533 0.446583,-0.151279 0.141705,-0.03236 0.306131,-0.0488 0.491437,-0.0488 0.290677,0 0.517096,0.08479 0.680601,0.253757 0.07604,0.08208 0.134207,0.205585 0.175514,0.346477 l -0.312024,0.0098 c -0.548213,0.01604 -0.953247,0.11252 -1.216891,0.288893 -0.263645,0.172364 -0.39588,0.418149 -0.39588,0.738826 0,0.328692 0.100425,0.57176 0.301298,0.72809 0.200871,0.152321 0.454089,0.228382 0.759582,0.228382 0.280384,0 0.501791,-0.04172 0.665,-0.125903 0.09329,-0.04812 0.183086,-0.115834 0.27107,-0.194222 v 0.05368 0.266446 h 0.499238 v -1.499123 h -0.0019 c 5.9e-5,-0.0076 0.0019,-0.01377 0.0019,-0.02147 0,-0.323552 -0.05827,-0.594681 -0.174538,-0.813977 -0.119904,-0.219296 -0.285572,-0.385335 -0.496313,-0.49678 -0.21074,-0.111446 -0.455429,-0.166895 -0.735205,-0.166895 z m -4.297149,0.388445 c 0.243442,0 0.421703,0.07672 0.53434,0.23131 0.07636,0.102361 0.118049,0.234344 0.144311,0.379661 H 11.04948 c 0.04009,-0.153934 0.09601,-0.291202 0.186239,-0.390397 0.134438,-0.147396 0.316158,-0.220574 0.545066,-0.220574 z m -4.2815474,0.610971 h 1.4977128 c 0.2852129,0 0.4992376,0.46408 0.4992376,0.749562 0,0.285481 -0.2140247,0.749561 -0.4992376,0.749561 H 7.4992376 Z m 9.4767394,0.369901 c 0.0037,0.04345 0.0096,0.08664 0.01072,0.129807 h -0.0019 v 0.0088 0.731019 c -0.03215,0.03952 -0.06645,0.078 -0.107258,0.110287 -0.188317,0.148313 -0.422644,0.222525 -0.703028,0.222525 -0.179948,0 -0.328433,-0.0427 -0.445608,-0.126878 -0.112991,-0.08418 -0.169663,-0.215872 -0.169663,-0.396253 0,-0.204432 0.07889,-0.363072 0.237918,-0.475308 0.163208,-0.112237 0.454207,-0.176237 0.872691,-0.19227 z"/>
</svg>

<svg xmlns="http://www.w3.org/2000/svg" width="24" height="24" version="1">
 <circle style="opacity:0.2" cx="12" cy="12.5" r="10"/>
 <path style="fill:#109f5b" d="M 3.348,17.021 C 5.099,20.058 8.185,19.815 11.426,20 14.882,18.093 16.714,17.668 15.82,14.375 15.441,14.993 14.916,15.529 14.242,15.918 13.171,16.537 12.18,15.886 11.077,15.597 9.958,15.304 8.73,15.359 8.104,14.272 L 3.642,6.536 C 1.634,9.59 1.391,13.627 3.348,17.021 Z"/>
 <path style="fill:#dd4d3e" d="M 12.127,2 C 10.82,2 8.789,2.248 6.588,3.594 6.587,3.594 6.585,3.595 6.584,3.596 L 6.582,3.598 C 5.509,4.3 4.117,5.498 3.139,7.391 L 7.709,14.568 C 7.337,13.947 7.529,12.963 7.496,12.186 7.44,10.856 8.608,10.241 9.486,9.381 10.251,8.631 12.05,7.603 11.726,7 H 20.645 C 20.03,5.855 19.125,4.954 18.146,4.127 15.828,2.3 13.324,2 12.127,2 Z"/>
 <path style="fill:#ffce41" d="M 20.645,6.998 12.135,7.002 C 12.859,7.021 13.586,7.712 14.26,8.102 15.412,8.767 15.304,10.083 15.559,11.285 15.781,12.333 17.062,13.049 16.482,14.053 L 11.447,19.973 C 11.505,19.976 11.562,19.978 11.619,19.98 15.313,20.131 18.819,20.212 20.686,16.941 21.542,15.434 22,13.682 22,11.945 V 11.941 C 22,11.716 21.982,11.494 21.973,11.269 21.858,9.764 21.404,8.303 20.645,6.998 Z"/>
 <path style="opacity:0.2;fill:#ffffff" d="M 12,2 A 10,10 0 0 0 2,12 10,10 0 0 0 2.0098,12.293 10,10 0 0 1 12,2.5 10,10 0 0 1 21.99,12.207 10,10 0 0 0 22,12 10,10 0 0 0 12,2 Z"/>
 <circle style="opacity:0.2" cx="12" cy="12.5" r="5"/>
 <circle style="fill:#ffffff" cx="12" cy="12" r="5"/>
 <circle style="fill:#4587f3" cx="12" cy="12" r="4"/>
 <path style="fill:#4f4f4f" d="M 2.061,13 A 10,10 0 0 0 12,22 10,10 0 0 0 21.949,13 Z"/>
 <path style="opacity:0.2" d="M 7,15.002 V 19.5 H 8.997 C 9.5501,19.5 9.9954,18.804 9.9954,18.25 9.9954,17.905 9.8216,17.503 9.5566,17.251 9.8216,16.998 9.9954,16.597 9.9954,16.252 9.9954,15.698 9.5501,15.002 8.997,15.002 Z M 7.4992,15.502 H 8.997 C 9.2822,15.502 9.4962,15.966 9.4962,16.252 9.4962,16.537 9.2822,17.001 8.997,17.001 H 7.4992 Z M 13.49,15.752 C 13.49,16.076 13.494,16.235 13.494,16.501 H 12.991 V 17.001 H 13.497 C 13.503,17.867 13.522,18.52 13.625,18.881 13.699,19.142 13.861,19.346 14.071,19.427 14.282,19.509 14.489,19.5 14.738,19.5 V 19 C 14.489,19 14.322,18.989 14.252,18.962 14.181,18.934 14.156,18.92 14.105,18.743 14.036,18.5 14.013,17.863 14.002,17.001 H 14.489 V 16.501 H 13.997 C 13.996,16.234 13.989,16.076 13.989,15.752 Z M 11.787,16.501 C 11.529,16.501 11.301,16.563 11.105,16.685 10.912,16.807 10.762,16.982 10.653,17.208 10.547,17.435 10.495,17.706 10.495,18.022 10.495,18.346 10.553,18.617 10.669,18.836 10.789,19.055 10.955,19.221 11.166,19.333 11.376,19.444 11.621,19.5 11.901,19.5 12.101,19.5 12.273,19.483 12.418,19.451 12.564,19.422 12.711,19.376 12.86,19.311 V 18.896 C 12.708,18.96 12.559,19.011 12.414,19.047 12.272,19.079 12.107,19.096 11.922,19.096 11.631,19.096 11.405,19.011 11.242,18.842 11.018,18.629 10.994,18.239 10.994,18.001 H 12.991 V 17.806 C 12.991,17.544 12.942,17.315 12.844,17.121 12.749,16.923 12.611,16.771 12.429,16.663 12.248,16.556 12.034,16.501 11.787,16.501 Z M 16.078,16.501 C 15.878,16.501 15.706,16.518 15.56,16.55 15.415,16.579 15.267,16.625 15.118,16.69 V 17.106 C 15.271,17.041 15.42,16.99 15.565,16.954 15.707,16.922 15.871,16.905 16.056,16.905 16.347,16.905 16.574,16.99 16.737,17.159 16.813,17.241 16.871,17.365 16.913,17.506 L 16.601,17.516 C 16.052,17.532 15.647,17.628 15.384,17.804 15.12,17.977 14.988,18.223 14.988,18.543 14.988,18.872 15.088,19.115 15.289,19.271 15.49,19.424 15.743,19.5 16.049,19.5 16.329,19.5 16.55,19.458 16.714,19.374 16.807,19.326 16.897,19.258 16.985,19.18 V 19.5 H 17.484 V 17.979 C 17.484,17.656 17.426,17.384 17.309,17.165 17.19,16.946 17.024,16.78 16.813,16.668 16.602,16.557 16.358,16.501 16.078,16.501 Z M 11.781,16.89 C 12.024,16.89 12.202,16.967 12.315,17.121 12.391,17.224 12.433,17.356 12.459,17.501 H 11.049 C 11.09,17.347 11.145,17.21 11.236,17.11 11.37,16.963 11.552,16.89 11.781,16.89 Z M 7.4992,17.501 H 8.997 C 9.2822,17.501 9.4962,17.965 9.4962,18.25 9.4962,18.536 9.2822,19 8.997,19 H 7.4992 Z M 16.976,17.871 16.985,18.74 C 16.953,18.78 16.918,18.818 16.878,18.851 16.689,18.999 16.455,19.073 16.175,19.073 15.995,19.073 15.846,19.03 15.729,18.946 15.616,18.862 15.559,18.73 15.559,18.55 15.559,18.346 15.638,18.187 15.797,18.075 15.96,17.962 16.251,17.898 16.67,17.882 Z"/>
 <path style="fill:#ffffff" d="M 7,14.503 V 19 H 8.997 C 9.5501,19 9.9954,18.304 9.9954,17.751 9.9954,17.405 9.8216,17.004 9.5566,16.751 9.8216,16.499 9.9954,16.097 9.9954,15.752 9.9954,15.198 9.5501,14.503 8.997,14.503 Z M 7.4992,15.002 H 8.997 C 9.2822,15.002 9.4962,15.466 9.4962,15.752 9.4962,16.037 9.2822,16.501 8.997,16.501 H 7.4992 Z M 13.49,15.252 C 13.49,15.576 13.494,15.735 13.494,16.002 H 12.991 V 16.501 H 13.497 C 13.503,17.367 13.522,18.02 13.625,18.381 13.699,18.642 13.861,18.846 14.071,18.928 14.282,19.01 14.489,19 14.738,19 V 18.5 C 14.489,18.5 14.322,18.49 14.252,18.462 14.181,18.435 14.156,18.42 14.105,18.244 14.036,18 14.013,17.364 14.002,16.501 H 14.489 V 16.002 H 13.997 C 13.996,15.734 13.989,15.577 13.989,15.252 Z M 11.787,16.002 C 11.529,16.002 11.301,16.063 11.105,16.185 10.912,16.307 10.762,16.482 10.653,16.708 10.547,16.935 10.495,17.206 10.495,17.522 10.495,17.846 10.553,18.117 10.669,18.336 10.789,18.556 10.955,18.722 11.166,18.833 11.376,18.944 11.621,19 11.901,19 12.101,19 12.273,18.983 12.418,18.951 12.564,18.922 12.711,18.876 12.86,18.812 V 18.396 C 12.708,18.46 12.559,18.511 12.414,18.547 12.272,18.579 12.107,18.596 11.922,18.596 11.631,18.596 11.405,18.511 11.242,18.342 11.018,18.129 10.994,17.751 10.994,17.501 H 12.991 V 17.307 C 12.991,17.044 12.942,16.816 12.844,16.621 12.749,16.424 12.611,16.272 12.429,16.164 12.248,16.056 12.034,16.002 11.787,16.002 Z M 16.078,16.002 C 15.878,16.002 15.706,16.018 15.56,16.05 15.415,16.079 15.267,16.125 15.118,16.19 V 16.606 C 15.271,16.541 15.42,16.49 15.565,16.455 15.707,16.422 15.871,16.406 16.056,16.406 16.347,16.406 16.574,16.491 16.737,16.659 16.813,16.742 16.871,16.865 16.913,17.006 L 16.601,17.016 C 16.052,17.032 15.647,17.128 15.384,17.305 15.12,17.477 14.988,17.723 14.988,18.043 14.988,18.372 15.088,18.615 15.289,18.772 15.49,18.924 15.743,19 16.049,19 16.329,19 16.55,18.958 16.714,18.874 16.807,18.826 16.897,18.758 16.985,18.68 V 19 H 17.484 V 17.479 C 17.484,17.156 17.426,16.885 17.309,16.665 17.19,16.446 17.024,16.28 16.813,16.169 16.602,16.057 16.358,16.002 16.078,16.002 Z M 11.781,16.39 C 12.024,16.39 12.202,16.467 12.315,16.621 12.391,16.724 12.433,16.856 12.459,17.001 H 11.049 C 11.09,16.847 11.145,16.71 11.236,16.611 11.37,16.463 11.552,16.39 11.781,16.39 Z M 7.4992,17.001 H 8.997 C 9.2822,17.001 9.4962,17.465 9.4962,17.751 9.4962,18.036 9.2822,18.5 8.997,18.5 H 7.4992 Z M 16.976,17.371 16.985,18.241 C 16.953,18.28 16.918,18.319 16.878,18.351 16.689,18.499 16.455,18.573 16.175,18.573 15.995,18.573 15.846,18.531 15.729,18.447 15.616,18.362 15.559,18.231 15.559,18.05 15.559,17.846 15.638,17.687 15.797,17.575 15.96,17.463 16.251,17.399 16.67,17.383 Z"/>
</svg>
